images/svg/astronaut.svg

<svg width="70" height="70" viewBox="0 0 70 70" fill="none" xmlns="http://www.w3.org/2000/svg">
<path d="M69.943 9.89619C69.8053 9.47495 69.4413 9.16706 69.0015 9.1028L64.8225 8.49494L62.9523 4.7079C62.5603 3.90987 61.2524 3.90987 60.8605 4.7079L58.9903 8.49494L54.8111 9.10293C54.3713 9.16706 54.0073 9.47399 53.8684 9.89632C53.732 10.3187 53.845 10.783 54.1636 11.0922L57.1888 14.0405L56.4749 18.2032C56.4002 18.6407 56.5799 19.0829 56.9381 19.3443C57.3009 19.608 57.7745 19.6406 58.1677 19.4329L61.9058 17.467L65.6439 19.4329C65.8143 19.5227 66.0021 19.567 66.1876 19.567C66.4291 19.567 66.6707 19.4924 66.8737 19.3441C67.233 19.0829 67.4127 18.6406 67.3369 18.2031L66.623 14.0403L69.6482 11.0921C69.9651 10.7817 70.0795 10.3185 69.943 9.89619ZM64.5553 12.7989C64.2812 13.0661 64.1551 13.4534 64.2205 13.8314L64.6382 16.2686L62.4496 15.1182C62.2792 15.0284 62.0926 14.9841 61.9058 14.9841C61.7192 14.9841 61.5337 15.0284 61.3621 15.1182L59.1733 16.2686L59.591 13.8314C59.6564 13.4534 59.5303 13.0673 59.2562 12.7989L57.484 11.0723L59.9317 10.7164C60.3121 10.6616 60.6399 10.4224 60.8103 10.0782L61.9046 7.86151L62.9989 10.0782C63.1693 10.4223 63.4971 10.6616 63.8775 10.7164L66.3252 11.0723L64.5553 12.7989Z" fill="#2196F3"/>
<path d="M57.1674 44.8921H54.834V47.2255H57.1674V44.8921Z" fill="#2196F3"/>
<path d="M57.1674 49.5591H54.834V51.8925H57.1674V49.5591Z" fill="#2196F3"/>
<path d="M59.5004 47.2256H57.167V49.559H59.5004V47.2256Z" fill="#2196F3"/>
<path d="M54.8334 47.2256H52.5V49.559H54.8334V47.2256Z" fill="#2196F3"/>
<path d="M49.0004 57.7261H46.667V60.0595H49.0004V57.7261Z" fill="#2196F3"/>
<path d="M49.0004 62.3926H46.667V64.726H49.0004V62.3926Z" fill="#2196F3"/>
<path d="M51.3334 60.0591H49V62.3925H51.3334V60.0591Z" fill="#2196F3"/>
<path d="M46.6664 60.0591H44.333V62.3925H46.6664V60.0591Z" fill="#2196F3"/>
<path d="M35.0004 53.0591H32.667V55.3925H35.0004V53.0591Z" fill="#2196F3"/>
<path d="M35.0004 57.7261H32.667V60.0595H35.0004V57.7261Z" fill="#2196F3"/>
<path d="M37.3334 55.3926H35V57.726H37.3334V55.3926Z" fill="#2196F3"/>
<path d="M32.6664 55.3926H30.333V57.726H32.6664V55.3926Z" fill="#2196F3"/>
<path d="M12.8334 13.3916H10.5V15.725H12.8334V13.3916Z" fill="#2196F3"/>
<path d="M12.8334 18.0586H10.5V20.392H12.8334V18.0586Z" fill="#2196F3"/>
<path d="M15.1664 15.7251H12.833V18.0585H15.1664V15.7251Z" fill="#2196F3"/>
<path d="M10.4994 15.7251H8.16602V18.0585H10.4994V15.7251Z" fill="#2196F3"/>
<path d="M54.0635 30.974C53.4347 30.1258 52.5119 29.5798 51.4642 29.4327C50.4118 29.2834 49.3734 29.5599 48.5334 30.2028L45.7952 32.3015L45.794 32.3028L41.6428 35.4027L38.6724 34.2196C43.9691 31.8431 47.6711 26.5452 47.6711 20.3944C47.6711 12.0316 40.8401 5.22754 32.4436 5.22754C24.047 5.22754 17.2161 12.0316 17.2161 20.3944C17.2161 23.4255 18.1226 26.2441 19.6662 28.616L13.6204 28.5635C13.6168 28.5635 13.6134 28.5635 13.6099 28.5635C13.5911 28.5635 13.5761 28.5728 13.5586 28.574C13.4431 28.5786 13.3298 28.602 13.2191 28.6417C13.1911 28.6522 13.162 28.6581 13.1352 28.6708C13.1212 28.6767 13.1071 28.6778 13.0932 28.6847L6.02075 32.1766C6.01952 32.1766 6.01843 32.1766 6.01843 32.1777L1.8766 34.1694C1.83107 34.1893 1.78445 34.2161 1.73892 34.2464C0.0880191 35.3454 -0.474314 37.5038 0.429958 39.2677C0.911763 40.2058 1.73195 40.8965 2.73999 41.2126C3.12856 41.3339 3.52518 41.3935 3.91949 41.3935C4.55305 41.3935 5.18074 41.2383 5.75578 40.9315L8.79154 39.3168L13.7441 36.7595L16.7122 36.742L4.80844 48.5886C4.80735 48.5898 4.80612 48.5898 4.80489 48.5909L1.87647 51.5076C1.18466 52.1959 0.8043 53.1094 0.8043 54.0836C0.8043 55.0567 1.18466 55.9724 1.87647 56.6621C2.587 57.369 3.52149 57.7237 4.45598 57.7237C5.3917 57.7237 6.32495 57.369 7.03782 56.6621L9.91251 53.799L13.7206 50.9557L15.6912 52.9181L11.8375 56.7553C11.8364 56.7565 11.8352 56.7565 11.834 56.7576L8.90556 59.6743C8.21375 60.3627 7.8334 61.2761 7.8334 62.2504C7.8334 63.2234 8.21375 64.1392 8.90556 64.8288C9.6161 65.5358 10.5518 65.8904 11.4863 65.8904C12.4208 65.8904 13.3565 65.5358 14.0681 64.8288L16.9977 61.9121L21.6842 57.2455C21.6854 57.2442 21.6854 57.2431 21.6865 57.2419L23.8951 55.0544L23.8869 55.0462C23.9008 55.0322 23.9207 55.0274 23.9347 55.0124L35.2353 42.635L42.8281 43.7154C42.8829 43.7236 42.9377 43.727 42.9925 43.727C43.1338 43.727 43.2702 43.6933 43.402 43.6431C43.4406 43.6292 43.4743 43.6104 43.5106 43.5918C43.5526 43.5708 43.5968 43.5591 43.6366 43.5323L50.6659 38.8657C50.6916 38.8482 50.7055 38.8201 50.73 38.8015C50.758 38.7794 50.793 38.7701 50.8186 38.7455L53.5999 36.1403C55.0471 34.7843 55.2466 32.563 54.0635 30.974ZM4.66024 38.8724C4.28111 39.0754 3.85058 39.1161 3.43878 38.9856C3.03039 38.8584 2.69912 38.5795 2.50538 38.2027C2.15305 37.5166 2.35718 36.6813 2.97433 36.2298L5.84793 34.8473L6.53974 36.8691L6.83027 37.7184L4.66024 38.8724ZM12.3102 34.8742L8.92333 36.6243L8.36456 34.9909L7.96328 33.8171L12.3967 31.6283L12.3102 34.8742ZM45.3402 20.3921C45.3402 22.401 44.8607 24.2959 44.03 25.9909L34.8832 21.8364C34.7875 20.5822 34.1366 19.4844 33.1589 18.8006L36.3614 8.16868C41.5626 9.82314 45.3402 14.6754 45.3402 20.3921ZM19.5519 20.3921C19.5519 13.3161 25.3363 7.55849 32.446 7.55849C32.9991 7.55849 33.5403 7.60511 34.0759 7.67279L30.9433 18.0715C30.9014 18.0703 30.8617 18.0587 30.8185 18.0587C28.5597 18.0587 26.7222 19.8903 26.7222 22.1421C26.7222 24.3938 28.5597 26.2255 30.8185 26.2255C32.3375 26.2255 33.65 25.3868 34.3582 24.1593L42.8073 27.9977C40.4564 31.1617 36.6938 33.2256 32.4459 33.2256C25.3363 33.2256 19.5519 27.4681 19.5519 20.3921ZM32.5814 22.1421C32.5814 23.1069 31.7903 23.8921 30.8185 23.8921C29.8467 23.8921 29.0556 23.1069 29.0556 22.1421C29.0556 21.1773 29.8467 20.3921 30.8185 20.3921C31.7903 20.3921 32.5814 21.1773 32.5814 22.1421ZM5.39183 55.0076C4.87503 55.5198 4.03843 55.5187 3.52286 55.0088C3.2743 54.7603 3.13785 54.4326 3.13785 54.0836C3.13785 53.736 3.2743 53.4081 3.52286 53.162L5.6274 51.0654L7.48941 52.9193L5.39183 55.0076ZM12.4222 63.1745C11.9054 63.6866 11.0677 63.6879 10.552 63.1757C10.3034 62.9272 10.1669 62.5994 10.1669 62.2505C10.1669 61.9028 10.3034 61.575 10.552 61.3289L12.6579 59.2312L13.5388 60.1074L14.5211 61.0851L12.4222 63.1745ZM20.0383 55.5863C20.0371 55.5874 20.036 55.5874 20.0348 55.5887L16.1742 59.4387L15.2933 58.5625L14.311 57.5848L18.168 53.7453C18.168 53.7453 18.168 53.7453 18.168 53.7442C18.1692 53.7429 18.1703 53.7429 18.1715 53.7418C18.259 53.6543 18.3139 53.5493 18.3676 53.4456C18.3828 53.4152 18.4119 53.3895 18.4248 53.3581C18.461 53.2682 18.4667 53.1714 18.4808 53.0768C18.4878 53.0231 18.5112 52.9731 18.5112 52.9181C18.5112 52.8399 18.4831 52.7642 18.4669 52.687C18.4529 52.617 18.4529 52.5458 18.426 52.4783C18.3817 52.3686 18.3058 52.2718 18.2265 52.1772C18.2044 52.1515 18.1962 52.1188 18.1717 52.0944C18.1717 52.0944 18.1717 52.0944 18.1705 52.0944C18.1692 52.0933 18.1692 52.0908 18.1681 52.0897L14.6529 48.5897C14.6156 48.5523 14.5677 48.5372 14.5257 48.5057C14.464 48.4579 14.4045 48.4136 14.3356 48.3797C14.2691 48.347 14.2014 48.3271 14.1314 48.3084C14.0568 48.2874 13.9845 48.2711 13.9063 48.2652C13.835 48.2606 13.7686 48.2675 13.6975 48.2757C13.6193 48.285 13.5459 48.2956 13.47 48.32C13.3964 48.3434 13.3312 48.3795 13.2635 48.4181C13.2203 48.4425 13.1714 48.4507 13.1305 48.4811L9.25133 51.3768L7.28077 49.4145L12.5285 44.1948L22.0674 53.5761L20.0383 55.5863ZM34.9544 40.2374C34.9207 40.2327 34.8891 40.2456 34.8553 40.2433C34.7701 40.2386 34.6885 40.2445 34.6034 40.2584C34.5369 40.2701 34.4739 40.2829 34.4108 40.3051C34.3362 40.3308 34.2685 40.3658 34.1996 40.4077C34.1343 40.4474 34.0748 40.4894 34.0176 40.5419C33.9896 40.5663 33.9558 40.5781 33.9301 40.606L23.6527 51.8622L14.185 42.5508L20.3825 36.3861C20.8387 35.9311 20.841 35.1925 20.386 34.7352C20.1562 34.5054 19.854 34.3922 19.5519 34.3934V34.3923L14.6984 34.4214L14.7591 30.9051L21.5492 30.9635C24.3166 33.7939 28.176 35.5591 32.446 35.5591C33.4027 35.5591 34.3361 35.4599 35.2448 35.2907C35.3323 35.3607 35.4186 35.4319 35.5284 35.4762L40.7995 37.5762L41.1331 39.2352L41.5228 41.1719L34.9544 40.2374ZM43.7944 40.627L43.1096 37.2191L46.2736 34.8566L47.102 35.9556L48.3445 37.6052L43.7944 40.627ZM52.0055 34.4343L50.1726 36.1516L48.1356 33.4473L49.9544 32.0531C50.2938 31.7919 50.7221 31.6856 51.1421 31.7405C51.5644 31.7999 51.9378 32.0205 52.1921 32.3623C52.6658 33.0005 52.5853 33.8907 52.0055 34.4343Z" fill="#212121"/>
<path d="M29.7542 40.5651L25.0664 35.8984C24.6127 35.4447 23.8752 35.4447 23.4202 35.8984L18.7337 40.5651C18.5144 40.7857 18.3906 41.0819 18.3906 41.3923C18.3906 41.7026 18.5131 42.0002 18.7337 42.2195L23.4202 46.8861C23.6477 47.1124 23.9464 47.2256 24.2439 47.2256C24.5414 47.2256 24.84 47.1124 25.0664 46.8861L29.7542 42.2195C29.9735 42.0002 30.0983 41.7026 30.0983 41.3923C30.0983 41.0819 29.9746 40.7844 29.7542 40.5651ZM24.2439 44.4129L21.2105 41.3923L24.2439 38.3717L27.2784 41.3923L24.2439 44.4129Z" fill="#212121"/>
<path d="M37.547 11.0923L36.9834 13.358C37.1386 13.3966 40.7845 14.3462 40.7845 18.0586H43.1179C43.1178 13.6461 39.4743 11.5718 37.547 11.0923Z" fill="#212121"/>
<path d="M43.1176 20.3921H40.7842V22.7255H43.1176V20.3921Z" fill="#212121"/>
</svg>

<svg width="70" height="70" fill="none" xmlns="http://www.w3.org/2000/svg"><path d="M69.943 9.896a1.168 1.168 0 00-.942-.793l-4.178-.608-1.87-3.787c-.393-.798-1.7-.798-2.093 0l-1.87 3.787-4.179.608a1.167 1.167 0 00-.648 1.99l3.026 2.947-.714 4.163c-.075.438.105.88.463 1.141.363.264.837.297 1.23.089l3.738-1.966 3.738 1.966a1.168 1.168 0 001.693-1.23l-.714-4.163 3.025-2.948a1.17 1.17 0 00.295-1.196zM64.555 12.8c-.274.267-.4.654-.335 1.032l.418 2.438-2.188-1.15a1.165 1.165 0 00-1.088 0l-2.189 1.15.418-2.438a1.168 1.168 0 00-.335-1.032l-1.772-1.727 2.448-.356c.38-.054.708-.294.878-.638l1.095-2.216 1.094 2.216c.17.344.498.584.878.638l2.448.356-1.77 1.727zM57.167 44.892h-2.333v2.333h2.333v-2.333zM57.167 49.56h-2.333v2.332h2.333V49.56zM59.5 47.226h-2.333v2.333H59.5v-2.333zM54.833 47.226H52.5v2.333h2.333v-2.333zM49 57.726h-2.333v2.334H49v-2.334zM49 62.393h-2.333v2.333H49v-2.333zM51.333 60.06H49v2.332h2.333V60.06zM46.666 60.06h-2.333v2.332h2.333V60.06zM35 53.06h-2.333v2.332H35V53.06zM35 57.726h-2.333v2.334H35v-2.334zM37.333 55.393H35v2.333h2.333v-2.333zM32.666 55.393h-2.333v2.333h2.333v-2.333zM12.833 13.392H10.5v2.333h2.333v-2.333zM12.833 18.059H10.5v2.333h2.333v-2.333zM15.166 15.725h-2.333v2.333h2.333v-2.333zM10.5 15.725H8.165v2.333h2.333v-2.333z" fill="#2196F3"/><path d="M54.063 30.974a3.88 3.88 0 00-2.599-1.541 3.886 3.886 0 00-2.93.77L45.794 32.3l-.001.002-4.151 3.1-2.97-1.183c5.296-2.377 8.998-7.675 8.998-13.826 0-8.362-6.83-15.166-15.227-15.166s-15.228 6.804-15.228 15.166c0 3.032.907 5.85 2.45 8.222l-6.046-.052h-.01c-.019 0-.034.009-.051.01a1.136 1.136 0 00-.34.068c-.028.01-.057.016-.084.029-.014.006-.028.007-.042.014l-7.072 3.492h-.003L1.877 34.17a.915.915 0 00-.138.077A3.895 3.895 0 00.43 39.268a3.884 3.884 0 002.31 1.945 3.891 3.891 0 003.016-.281l3.036-1.615 4.952-2.557 2.968-.018L4.808 48.589s-.002 0-.003.002l-2.929 2.917a3.607 3.607 0 00-1.072 2.576c0 .973.38 1.888 1.072 2.578a3.648 3.648 0 002.58 1.062c.936 0 1.869-.355 2.582-1.062L9.913 53.8l3.808-2.843 1.97 1.962-3.854 3.837c0 .002-.002.002-.003.003l-2.928 2.916a3.607 3.607 0 00-1.073 2.576c0 .973.38 1.89 1.073 2.579a3.65 3.65 0 002.58 1.061c.935 0 1.87-.354 2.582-1.061l2.93-2.917 4.686-4.666.002-.004 2.21-2.188-.01-.008c.015-.014.035-.019.049-.034l11.3-12.377 7.593 1.08c.055.009.11.012.164.012.142 0 .278-.034.41-.084.039-.014.072-.033.109-.051.042-.021.086-.033.126-.06l7.029-4.666c.026-.018.04-.046.064-.065.028-.022.063-.03.089-.056l2.78-2.605a3.892 3.892 0 00.465-5.166zM4.66 38.872a1.56 1.56 0 01-1.221.114 1.565 1.565 0 01-.465-2.756l2.874-1.383.692 2.022.29.85-2.17 1.153zm7.65-3.998l-3.387 1.75-.558-1.633-.402-1.174 4.434-2.189-.087 3.246zm33.03-14.482c0 2.009-.48 3.904-1.31 5.599l-9.147-4.155a4.07 4.07 0 00-1.724-3.035L36.36 8.169c5.202 1.654 8.98 6.506 8.98 12.223zm-25.788 0c0-7.076 5.784-12.834 12.894-12.834.553 0 1.094.047 1.63.115l-3.133 10.399c-.042-.002-.081-.013-.125-.013a4.094 4.094 0 00-4.096 4.083 4.094 4.094 0 004.096 4.084c1.52 0 2.832-.84 3.54-2.067l8.45 3.839c-2.352 3.164-6.114 5.228-10.362 5.228-7.11 0-12.894-5.758-12.894-12.834zm13.03 1.75c0 .965-.792 1.75-1.764 1.75a1.759 1.759 0 01-1.762-1.75c0-.965.79-1.75 1.762-1.75s1.763.785 1.763 1.75zM5.391 55.008a1.33 1.33 0 01-1.87 0 1.299 1.299 0 010-1.846l2.105-2.097L7.49 52.92l-2.097 2.089zm7.03 8.166a1.33 1.33 0 01-1.87.002 1.299 1.299 0 010-1.847l2.106-2.098.88.876.983.978-2.099 2.09zm7.616-7.588l-.003.003-3.86 3.85-.882-.877-.982-.977 3.857-3.84.004-.003a1.14 1.14 0 00.196-.296c.015-.03.044-.056.057-.088.036-.09.042-.187.056-.281.007-.054.03-.104.03-.159 0-.078-.028-.154-.044-.231-.014-.07-.014-.141-.041-.209a1.166 1.166 0 00-.2-.3c-.022-.026-.03-.06-.054-.084h-.002s0-.003-.002-.004l-3.515-3.5c-.037-.038-.085-.053-.127-.084a1.117 1.117 0 00-.19-.126 1.088 1.088 0 00-.205-.072 1.132 1.132 0 00-.225-.043 1.141 1.141 0 00-.209.01c-.078.01-.151.02-.227.045-.074.023-.139.06-.207.098-.043.025-.092.033-.133.063l-3.879 2.896-1.97-1.963 5.247-5.22 9.54 9.382-2.03 2.01zm14.916-15.349c-.033-.004-.065.009-.099.006a1.146 1.146 0 00-.252.015c-.066.012-.13.025-.192.047a1.08 1.08 0 00-.211.103 1.13 1.13 0 00-.182.134c-.028.024-.062.036-.088.064L23.653 51.862l-9.468-9.311 6.197-6.165a1.168 1.168 0 00-.83-1.993l-4.854.028.061-3.516 6.79.058a15.2 15.2 0 0010.897 4.596c.957 0 1.89-.1 2.799-.268.087.07.174.14.283.185l5.272 2.1.333 1.66.39 1.936-6.569-.935zm8.84.39l-.684-3.408 3.164-2.362.828 1.099 1.242 1.65-4.55 3.021zm8.212-6.193l-1.833 1.718-2.037-2.705 1.818-1.394c.34-.261.768-.367 1.188-.312.422.059.796.28 1.05.621a1.562 1.562 0 01-.187 2.072z" fill="#212121"/><path d="M29.754 40.565l-4.688-4.667a1.166 1.166 0 00-1.646 0l-4.686 4.667a1.173 1.173 0 000 1.654l4.686 4.667a1.165 1.165 0 001.646 0l4.688-4.667a1.167 1.167 0 000-1.654zm-5.51 3.848l-3.034-3.02 3.034-3.021 3.034 3.02-3.034 3.02zM37.547 11.092l-.564 2.266c.156.039 3.802.988 3.802 4.7h2.333c0-4.412-3.644-6.486-5.571-6.966zM43.118 20.392h-2.334v2.334h2.334v-2.334z" fill="#212121"/></svg>
